X: 21134
T: Kas Ha Barh
R: reel
M: 4/4
K: Bminor
Bffg f2ed|e2de fdBA|Bffg f2ed|e2de f3f|
f2ab ~a3f|e2de fdBA|Bffg f2ed|e2de f2gf||
BABc d3B|cdec dcBA|(3Bcd ec dcBc|dBcd B4:|

